X: 4
T: The Rights of Man
R:hornpipe
C:James Hill, Northumberland (c.1811–1853)
M:C|
K:Em
GA|"G"BcAB GAFG|"Em"EFGA B2ef|"G"gfed edBd|"C"cBAG "D"A2GA|
"G"BcAB GAFG|"Em"EFGA B2ef|"G"gfed Bgfg|"Em"e2E2 E2:|
|:ga|"G"bgbg "Em"efga|"G"bgbg "Em"egfe|"D"d2de fefg|afdf a2gf|
"Em"edef gfga|"G"bgaf gfef|gfed Bgfg|"Em"e2E2 E2:|


